X: 1
T: The Gatehouse Maid
R: reel
M: 4/4
L: 1/8
K: Gmajor
|A/A/A Bd edBA|GG/G/ GA GEDB|A/A/A Bd  edBd|e/f/g dB c/B/A BG|
|A/A/A Bd edBA|GG/G/ GA GEDB|A/A/A Bd  edBd|e/f/g dB c/B/A A2|
|a/a/a ea agef|g/f/g dg egdg|a/a/a ea b/a/g ab| gedB BAAz|
|~a2 ab agef|fg g/g/a gdeg|dega bgab|gedB BA{B}Az||
